svg/Pictogram/pictograms-aem-0027r-battery_jump.svg

<?xml version="1.0" encoding="ISO-8859-1" standalone="yes"?>
<svg height="304.014" width="304.011">
  <metadata>
    <rdf:RDF xmlns:cc="http://web.resource.org/cc/" xmlns:dc="http://purl.org/dc/elements/1.1/" xmlns:rdf="http://www.w3.org/1999/02/22-rdf-syntax-ns#">
      <cc:Work rdf:about="">
        <dc:title></dc:title>
        <dc:description></dc:description>
        <dc:subject>
          <rdf:Bag>
            <rdf:li></rdf:li>
          </rdf:Bag>
        </dc:subject>
        <dc:publisher>
          <cc:Agent rdf:about="http://www.unece.org/trans/danger/publi/ghs/pictograms.html">
            <dc:title>Source: UNECE GHS of Classification and Labeling of Chemicals, Source: AEM Pictorial Database, Source: AEM Pictorial Database, Source: AEM Pictorial Database, Source: AEM Pictorial Database</dc:title>
          </cc:Agent>
        </dc:publisher>
        <dc:creator>
          <cc:Agent>
            <dc:title></dc:title>
          </cc:Agent>
        </dc:creator>
        <dc:rights>
          <cc:Agent>
            <dc:title></dc:title>
          </cc:Agent>
        </dc:rights>
        <dc:date></dc:date>
        <dc:format>image/svg+xml</dc:format>
        <dc:type rdf:resource="http://purl.org/dc/dcmitype/StillImage"/>
        <cc:license rdf:resource="http://en.wikipedia.org/wiki/Public_domain"/>
        <dc:language>en</dc:language>
      </cc:Work>
    </rdf:RDF>
  </metadata>
  <defs><marker id="ArrowEnd" markerHeight="3" markerUnits="strokeWidth" markerWidth="4" orient="auto" refX="0" refY="5" viewBox="0 0 10 10"><path d="M 0 0 L 10 5 L 0 10 z"/></marker><marker id="ArrowStart" markerHeight="3" markerUnits="strokeWidth" markerWidth="4" orient="auto" refX="10" refY="5" viewBox="0 0 10 10"><path d="M 10 0 L 0 5 L 10 10 z"/></marker> </defs>
  <g id="g2958" transform="matrix(1.3532768,0,0,1.3532781,-53.207834,-52.192858)">
    <path d="M 121.682 211.366C 118.8 211.366 64.1321 211.366 61.2493 211.366C 61.2493 208.647 61.2493 180.803 61.2493 178.081C 64.1321 178.081 118.8 178.081 121.682 178.081C 121.682 180.803 121.682 208.647 121.682 211.366zM 123.237 174.975L 116.206 174.975L 116.206 170.405L 107.39 170.405L 107.39 174.975L 75.5931 174.975L 75.5931 170.405L 66.7845 170.405L 66.7845 174.975L 58.1399 174.975L 58.1399 214.475L 124.788 214.475L 124.788 174.975L 123.237 174.975" style="stroke:none; fill-rule:evenodd; fill:#000000"/>
    <path d="M 103.886 190.475L 118.249 190.475L 118.249 186.682L 103.886 186.682L 103.886 190.475z" style="stroke:none; fill-rule:evenodd; fill:#000000"/>
    <path d="M 76.972 188.346L 72.3352 188.346L 72.3352 183.725L 68.5384 183.725L 68.5384 188.346L 63.9016 188.346L 63.9016 192.143L 68.5384 192.143L 68.5384 196.78L 72.3352 196.78L 72.3352 192.143L 76.972 192.143L 76.972 188.346" style="stroke:none; fill-rule:evenodd; fill:#000000"/>
    <path d="M 74.7923 158.561L 78.5696 158.905L 81.9642 121.334L 78.1868 120.995L 74.7923 158.561" style="stroke:none; fill-rule:evenodd; fill:#000000"/>
    <path d="M 71.0931 91.3234C 54.8313 97.9874 58.2688 121.202 58.4251 122.182C 58.429 122.205 64.4798 158.022 64.4798 158.022L 68.222 157.389L 62.1712 121.573C 62.1399 121.385 59.0462 100.362 72.5306 94.8344C 93.0931 86.4204 107.706 107.955 108.319 108.877L 111.483 106.784C 111.315 106.53 94.5501 81.7214 71.0931 91.3234" style="stroke:none; fill-rule:evenodd; fill:#000000"/>
    <path d="M 74.4642 151.69L 80.1321 152.202L 82.9095 121.42L 77.2415 120.909L 74.4642 151.69" style="stroke:none; fill-rule:evenodd; fill:#000000"/>
    <path d="M 73.9485 163.034C 76.9095 163.034 76.5579 165.885 76.5579 165.885L 76.5579 167.311C 76.5579 169.44 75.9681 170.03 75.9681 170.03L 75.9681 171.698C 75.9681 171.698 78.5774 170.272 78.5774 167.541L 78.5774 159.592C 78.5774 159.592 78.6985 156.643 74.7845 156.643L 67.6673 156.643C 63.7415 156.643 63.8743 159.592 63.8743 159.592L 63.8743 167.541C 63.8743 170.272 66.472 171.698 66.472 171.698L 66.472 170.03C 66.472 170.03 65.8821 169.44 65.8821 167.311L 65.8821 165.885C 65.8821 165.885 65.5306 163.034 68.4876 163.034L 73.9485 163.034" style="stroke:none; fill-rule:evenodd; fill:#000000"/>
    <path d="M 57.4915 122.366L 62.5696 152.385L 68.1829 151.432L 63.1048 121.416L 57.4954 122.366" style="stroke:none; fill-rule:evenodd; fill:#000000"/>
    <path d="M 127.335 114.205L 127.651 114.428L 123.311 148.272L 123.733 148.272L 130.296 140.651C 129.765 144.045 128.073 147.538 127.651 151.03L 129.874 149.448L 147.327 134.842L 129.448 166.682L 129.448 166.901C 133.038 166.588 136.432 164.995 140.03 164.366L 132.097 170.705C 130.405 170.6 128.604 170.815 127.011 170.502C 127.335 169.971 128.604 169.233 128.073 168.483C 126.382 169.123 124.69 169.971 122.987 170.502L 123.097 169.764L 129.233 158.12L 129.233 157.807L 128.604 157.807L 119.085 163.834C 118.444 164.038 118.335 163.518 118.237 163.194L 119.397 151.983L 119.182 151.776L 115.268 159.592C 114.733 157.901 114.733 155.788 114.218 153.998C 113.046 156.225 112.839 159.385 111.569 161.393L 106.8 148.916L 106.702 148.807L 106.39 149.76L 104.682 163.834L 104.479 164.038L 98.8743 156.959C 98.6712 161.284 99.1868 165.623 99.3938 170.081C 97.6048 169.862 94.429 171.131 93.7884 168.909L 84.9095 148.178L 84.9095 147.85L 94.3196 157.479L 94.5384 157.057L 89.9837 133.995L 99.3938 147.647L 99.722 147.225L 99.5032 111.682L 99.5032 111.139L 109.975 140.975L 111.464 144.784L 111.776 144.784L 114.108 132.303L 114.108 132.1C 115.268 136.014 115.378 140.35 116.534 144.264L 116.862 144.264L 119.714 136.858L 127.116 115.272C 127.116 115.245 127.132 115.186 127.132 115.135" style="stroke:none; fill-rule:evenodd; fill:#000000"/>
    <path d="M 134.897 205.417L 191.19 141.541C 191.19 141.541 198.151 132.686 207.003 141.541L 244.319 206.058L 198.776 206.058L 185.186 182.971L 162.729 205.429L 134.897 205.417" style="stroke:none; fill-rule:evenodd; fill:#000000"/>
    <path d="M 194.53 117.705C 195.444 131.67 187.116 143.397 173.237 145.401L 166.343 145.909C 162.811 146.159 159.741 143.498 159.487 139.967L 158.874 131.342L 154.163 130.963C 153.347 130.764 152.968 130.788 152.78 129.94C 152.733 129.729 152.847 129.248 152.905 129.053L 154.518 123.323L 157.167 113.944L 157.339 113.327C 157.612 112.424 157.956 111.569 158.37 110.76C 161.62 104.397 167.581 100.112 173.702 99.2644L 173.706 99.2644L 175.003 99.0344C 176.694 98.8664 178.354 98.9484 179.882 99.2334L 181.132 99.6554C 187.62 101.647 192.331 107.627 193.96 114.065L 194.53 117.705zM 164.655 118.998L 163.597 118.819L 163.78 117.745L 161.62 117.377L 161.44 118.452L 160.272 118.252L 159.905 120.413L 161.069 120.612L 160.874 121.76L 163.034 122.127L 163.229 120.979L 164.288 121.159L 164.655 118.998" style="stroke:none; fill-rule:evenodd; fill:#000000"/>
    <path d="M 29.6204 265.393L 2.62042 265.393" style="stroke:#000000; stroke-width:0.5; fill:none"/>
    <path d="M 38.6204 274.393L 38.6204 301.393" style="stroke:#000000; stroke-width:0.5; fill:none"/>
    <path d="M 29.6204 38.6204L 2.62042 38.6204" style="stroke:#000000; stroke-width:0.5; fill:none"/>
    <path d="M 38.6204 29.6204L 38.6204 2.62042" style="stroke:#000000; stroke-width:0.5; fill:none"/>
    <path d="M 274.39 38.6204L 301.39 38.6204" style="stroke:#000000; stroke-width:0.5; fill:none"/>
    <path d="M 265.39 29.6204L 265.39 2.62042" style="stroke:#000000; stroke-width:0.5; fill:none"/>
    <path d="M 274.39 265.393L 301.39 265.393" style="stroke:#000000; stroke-width:0.5; fill:none"/>
    <path d="M 265.39 274.393L 265.39 301.393" style="stroke:#000000; stroke-width:0.5; fill:none"/>
  </g>
</svg>

<svg viewBox="0 0 304.01 304.01"><g transform="matrix(1.35328 0 0 1.35328-53.21-52.19)" fill-rule="evenodd"><path d="m121.68 211.37c-2.882 0-57.55 0-60.43 0 0-2.719 0-30.563 0-33.29 2.883 0 57.55 0 60.43 0 0 2.722 0 30.566 0 33.29m1.555-36.39h-7.03v-4.57h-8.816v4.57h-31.797v-4.57h-8.809v4.57h-8.645v39.5h66.65v-39.5h-1.551"/><path d="m103.89 190.47h14.363v-3.793h-14.363v3.793"/><path d="m76.972 188.35h-4.637v-4.621h-3.797v4.621h-4.637v3.797h4.637v4.637h3.797v-4.637h4.637v-3.797"/><path d="m74.79 158.56l3.777.344 3.395-37.571-3.777-.339-3.395 37.566"/><path d="m71.09 91.32c-16.262 6.664-12.824 29.879-12.668 30.859.004.023 6.05 35.84 6.05 35.84l3.742-.633-6.05-35.816c-.031-.188-3.125-21.21 10.359-26.739 20.563-8.414 35.18 13.12 35.788 14.04l3.164-2.093c-.168-.254-16.933-25.06-40.39-15.461"/><path d="m74.46 151.69l5.668.512 2.777-30.782-5.668-.511-2.777 30.781"/><path d="m73.948 163.03c2.961 0 2.609 2.851 2.609 2.851v1.426c0 2.129-.59 2.719-.59 2.719v1.668c0 0 2.609-1.426 2.609-4.157v-7.949c0 0 .121-2.949-3.793-2.949h-7.117c-3.926 0-3.793 2.949-3.793 2.949v7.949c0 2.731 2.598 4.157 2.598 4.157v-1.668c0 0-.59-.59-.59-2.719v-1.426c0 0-.351-2.851 2.606-2.851h5.461"/><path d="m57.49 122.37l5.078 30.02 5.613-.953-5.078-30.02-5.609.95"/><path d="m127.33 114.2l.316.223-4.34 33.844h.422l6.563-7.621c-.531 3.394-2.223 6.887-2.645 10.379l2.223-1.582 17.453-14.606-17.879 31.84v.219c3.59-.313 6.984-1.906 10.582-2.535l-7.933 6.339c-1.692-.105-3.493.11-5.086-.203.324-.531 1.593-1.269 1.062-2.02-1.691.64-3.383 1.488-5.086 2.02l.11-.738 6.136-11.644v-.313h-.629l-9.519 6.03c-.641.204-.75-.316-.848-.64l1.16-11.211-.215-.207-3.914 7.816c-.535-1.691-.535-3.804-1.05-5.594-1.172 2.227-1.379 5.387-2.649 7.395l-4.769-12.477-.098-.109-.312.953-1.708 14.07-.203.204-5.605-7.079c-.203 4.325.313 8.664.519 13.12-1.789-.219-4.965 1.05-5.605-1.172l-8.879-20.731v-.328l9.41 9.629.219-.422-4.555-23.06 9.41 13.652.328-.422-.219-35.543v-.543l10.472 29.836 1.489 3.809h.312l2.332-12.481v-.203c1.16 3.914 1.27 8.25 2.426 12.164h.328l2.852-7.406 7.402-21.586c0-.027.016-.086.016-.137"/><path d="m134.9 205.42l56.29-63.876c0 0 6.961-8.855 15.813 0l37.32 64.52h-45.543l-13.59-23.09-22.457 22.458-27.832-.012"/><path d="m194.53 117.7c.914 13.965-7.414 25.692-21.293 27.696l-6.894.508c-3.532.25-6.602-2.411-6.856-5.942l-.613-8.625-4.711-.379c-.816-.199-1.195-.175-1.383-1.023-.047-.211.067-.692.125-.887l1.613-5.73 2.649-9.379.172-.617c.273-.903.617-1.758 1.031-2.567 3.25-6.363 9.211-10.648 15.332-11.496h.004l1.297-.23c1.691-.168 3.351-.086 4.879.199l1.25.422c6.488 1.992 11.199 7.972 12.828 14.41l.57 3.64m-29.875 1.293l-1.058-.179.183-1.074-2.16-.368-.18 1.075-1.168-.2-.367 2.161 1.164.199-.195 1.148 2.16.367.195-1.148 1.059.18.367-2.161"/></g></svg>
